!!!OTL: O WIE LIEBLICH ISTS IM KREIS
!!!ARE: Europa, Mitteleuropa, Deutschland
!!!SCT: F0781
!!!YEM: Copyright 1995, estate of Helmut Schaffrath.
**kern
*ICvox
*Ivox
*M4/4
*k[f#c#g#]
*A:
=1
{4.a
8e
4a
4cc#
=2
4b
4cc#
2dd}
=3
{4.cc#
8ee
8ff#
8ee
8dd
8cc#
=4
4.cc#
8b
4b
4r}
=5
{4.a
8e
4a
4cc#
=6
4b
4cc#
2dd}
=7
{4.cc#
8ff#
4ee
4dd#
=8
4.dd#
8ee
4ee
4r}
=9
{4b
8cc#
8a
4b
8cc#
8a
=10
4b
8b
8cc#
2dd}
=11
{4cc#
8dd
8b
4cc#
8dd
8b
=12
4cc#
8cc#
8dd
2ee}
=13
{4.ff#
8ff#
4ff#
4ff#
=14
2ee
4cc#
4r}
=15
{4.dd
8dd
4cc#
4b
=16
2b
4a
4r}
==
!!!AGN: Geselligkeits -, Moral - Lied
!!!ONB: ESAC (Essen Associative Code) Database: FINK
!!!AMT: simple quadruple
!!!AIN: vox
!!!EED: Helmut Schaffrath
!!!EEV: 1.0
*-
